X: 1
T: the Gates of Edinburgh
R: reel
Z: 1997 by John Chambers <jc:trillian.mit.edu>
M: C|
L: 1/8
K: D
|: D2 | "D"A,B,DE F2dB | AFED "A7"E2DB, | "D"D2d2 A2FE | "G"D2B,2- "A7"B,2E2 | "D"F2FA F2FA |
| dAFD "A7"E2DB, | "D"D2d2 A2FE | "G"D2B,2- "A7"B,2 :: A2 | "D"dcde dfed | "A7"edef egfe |
| "D"dcde "Bm"defd | "Em"edcB "A7"A2de | "D"fedf "A7"edce | "Bm"dcBA d2de | "G"fedc "A7"BAFE | "Bm"D2B,2- "A7"B,2 :|
